!!!COM: Music21
!!!OTL: Foliada de Bens
!!!OMV: pezas_foliadas_foliada-de-bens_foliada-de-bens-partitura.musicxml
**kern
*I"Bagpipes
*I'Bag
*clefG^2
*k[]
*M3/4
=1
!LO:TX:a:t=Prestissimo
*MM200
!LO:TX:a:t=[quarter]=200
4r
4gg
8aaL
8ggJ
=||
4ff
8eeL
8ffJ
4gg
=
4ee
4gg
8aaL
8ggJ
=||
4ff
8eeL
8ggJ
[4ff
=
4ff]
4ff
8ggL
8ffJ
=
4ee
8ddL
8eeJ
4ff
=
4dd
4ff
8ggL
8ffJ
=
4ee
8ddL
8ffJ
[4ee
=
4ee]
4gg
8aaL
8ggJ
!!linebreak:original
=
4ff
8eeL
8ffJ
[4gg
=
4gg]
4gg
8aaL
8ggJ
=||
4ff
8eeL
8ggJ
[4ff
=
4ff]
4ff
8ggL
8ffJ
=
4ee
8ddL
8eeJ
4ff
=
4dd
4ff
8ggL
8ffJ
=
4ee
8ddL
8ffJ
[4ee
=
2.ee_
=
2.ee_
=
4ee]
2r
!!linebreak:original
=||
4.bb
8ccc
4bb
=
4aa
4gg
4ff
=
4.ee
8dd
[4cc
=
2.cc]
=
4.ccc
8ddd
4ccc
!!linebreak:original
=
4bb
4aa
4gg
=
4.ff
8ee
[4dd
=
2.dd]
=
4.bb
8ccc
4bb
=
4aa
4gg
4ff
=
4.ee
8dd
[4cc
=
2.cc]
=||
4.ccc
8ddd
4ccc
=
4bb
4aa
4gg
=
4.ff
8ee
[4dd
=
2.dd]
!!linebreak:original
=
4.bb
8ccc
4bb
=
4aa
4gg
4ff
=
4.ee
8dd
[4cc
=
2.cc]
=||
4.ccc
8ddd
4ccc
=
4bb
4aa
4gg
=
4.ff
8ee
[4dd
=
2.dd]
!!linebreak:original
=
4.bb
8ccc
4bb
=
4aa
4gg
4ff
=
4.ee
8dd
[4cc
=
8cc]
8r
4gg
8aaL
8ggJ
=||
4ff
8eeL
8ffJ
4gg
=
4ee
4gg
8aaL
8ggJ
=||
4ff
8eeL
8ggJ
[4ff
!!linebreak:original
=
4ff]
4ff
8ggL
8ffJ
=
4ee
8ddL
8eeJ
4ff
=
4dd
4ff
8ggL
8ffJ
=
4ee
8ddL
8ffJ
[4ee
=
4ee]
4gg
8aaL
8ggJ
=
4ff
8eeL
8ffJ
[4gg
=
4gg]
4gg
8aaL
8ggJ
=||
4ff
8eeL
8ggJ
[4ff
!!linebreak:original
=
4ff]
4ff
8ggL
8ffJ
=
4ee
8ddL
8eeJ
4ff
=
4dd
4ff
8ggL
8ffJ
=||
4ee
8ddL
8ffJ
[4ee
!!linebreak:original
=
2.ee_
=
2.ee_
=
4ee]
4gg
8aaL
8ggJ
=||
4ee
8ddL
8ffJ
[4ee
=
2.ee_
=
2.ee_
=
4ee]
2r
==
*-
